X:177
T:Gravel Walk
T:Gravel Walks
R:reel
D:Paddy Glackin: Ceol ar an bhFidil le Paddy Glackin.
D:Matt Molloy: Stony Steps.
Z:The last part is sometimes singled. See also Jenny's Chickens, #75
Z:id:hn-reel-60
M:C|
K:Ador
A2eA BAeA|A2eA BAGB|A2eA (3Bcd ef|gedc BAGB:|
|:A2aA gAfA|A2eA BAGB|1 A2aA gAfa|gedc BAGB:|2 ABcd efga|gedc BAGB||
|:cAAG ~A3B|cA~A2 dBGB|cAAG A2ef|gedc BAGB:|
|:c2gc acgc|c2ec BAGB|c2gc acga|gedc BAGB|
c2gc acgc|c2dc BAGB|1 ABcd efga|gedc BAGB:|2 Aa~a2 agef|gedc BAGB||
